img/members-meta-box-integration.svg

<svg clip-rule="evenodd" fill-rule="evenodd" stroke-linejoin="round" stroke-miterlimit="2" viewBox="0 0 998 810" xmlns="http://www.w3.org/2000/svg"><path d="m774 1048.7h-.9l-53.3-154.1h-77v25.3l22.3 4.3v150.1l-22.3 4.3v25.1h86.6v-25.1l-22.4-4.3v-32.9l-4-91.8.9-.1 55.7 154.3h28.2l56-154.9.9.1-4 92.4v32.9l-22.3 4.3v25.1h86.6v-25.1l-22.4-4.3v-150.1l22.4-4.3v-25.3h-77.3zm211.7-103.2c-21.4-.1-38.4 7.3-51.1 22.3-12.7 14.9-19 34-19 57v5.7c0 22.1 6.7 40.4 20.1 54.7 13.4 14.4 31.3 21.5 53.7 21.5 12.5 0 23.9-1.7 34.1-5.2 10.2-3.4 18.5-7.7 24.9-12.8l-11.3-25.9c-7.3 4-14 7-20.1 8.8-6.1 1.9-13.8 2.8-23.1 2.8-10.4 0-18.7-3.3-24.8-9.9s-9.5-15-10.3-25.3l.3-.9h92.8v-22.8c0-21.5-5.8-38.6-17.4-51.3-11.5-12.4-27.8-18.7-48.8-18.7zm25.2 65.3h-51.4l-.4-.7c1.1-9.7 3.8-17.5 8.3-23.4s10.6-8.9 18.4-8.9c8.4 0 14.7 2.7 18.9 8s6.2 12.4 6.2 21.3zm138.3 62.6c-2.2.2-4.7.4-7.5.4-4.2 0-7.6-1.3-10.1-3.9s-3.7-6.9-3.7-12.9v-79.2h27.3v-29.4h-27.3v-38.1h-41.9v38.1h-22.8v29.4h22.8v79.3c0 17.2 3.9 29.8 11.7 37.8s18.9 11.9 33.4 11.9c5.4 0 10.3-.4 14.9-1.1s9.2-1.8 13.9-3.2l-3.6-30.3c-2.6.5-5 .9-7.1 1.2zm154.7-2.5c0-2.1-.1-4.4-.1-6.8v-64.2c0-17.4-6-30.9-18-40.3s-27.7-14.1-46.9-14.1c-11.7 0-22.5 1.8-32.4 5.3s-18.7 7.9-26.4 13.1l-.1 34.5h31.6l2.7-16.7c2.3-1.5 5.3-2.8 9.1-4 3.7-1.1 8-1.7 12.8-1.7 8.4 0 14.8 2.1 19.1 6.2s6.5 9.9 6.5 17.4v15.2h-21.4c-22.6 0-39.7 4-51.4 11.9-11.7 8-17.5 19.2-17.5 33.8 0 14.3 4.5 25.5 13.4 33.8 9 8.3 21 12.4 36.3 12.4 9.2 0 17.4-1.8 24.5-5.3s13.2-8.2 18.2-13.9c.5 2.8 1.1 5.5 2 8.3.9 2.7 1.9 5.4 3 8h48.4v-25.1l-12.8-1.7c-.4-2-.6-4-.6-6.1zm-42.2-9.5c-2.9 4.1-6.9 7.5-12.1 10.3-5.2 2.7-10.9 4.1-17.2 4.1-6 0-10.8-1.5-14.1-4.5-3.4-3-5.1-7.1-5.1-12.4 0-5.8 2.3-10.8 6.9-15s11.3-6.2 20.3-6.2h21.4v23.7zm270.3-66.4c9.8-3.8 17.2-9.6 22.3-17.2s7.7-16.3 7.7-25.9c0-19.1-6.9-33.4-20.7-43s-33-14.4-57.6-14.4h-92.9v25.3l22.3 4.3v150.1l-22.3 4.3v25.1h102.9c24.2 0 43-5.1 56.2-15.4s19.8-25.4 19.8-45.5c0-11.6-3.1-21.8-9.4-30.6-6.4-8.7-15.8-14.4-28.3-17.1zm-77-68.1h28.7c12.1 0 21.1 2.3 27.2 6.9s9.1 11.7 9.1 21.4c0 8.8-3 15.5-9.1 20.1s-14.7 6.9-25.9 6.9h-30zm64 137.4c-5.8 4.8-14.3 7.3-25.4 7.3h-38.6v-60.3h41.8c10.7 0 18.6 2.7 23.6 8.1s7.5 13.2 7.5 23.5c-.1 9.4-3 16.6-8.9 21.4zm134.6-118.8c-22.9 0-40.8 7.4-53.8 22.2s-19.5 33.8-19.5 57v3c0 23.4 6.5 42.4 19.5 57.1s31 22.1 54.1 22.1c22.8 0 40.7-7.3 53.7-22.1 13-14.7 19.5-33.7 19.5-57.1v-3c0-23.3-6.5-42.3-19.5-57-13-14.9-31-22.2-54-22.2zm31.6 82.1c0 14.1-2.5 25.4-7.5 34s-13 12.9-23.8 12.9c-11.1 0-19.2-4.3-24.1-12.9-5-8.6-7.5-19.9-7.5-34.1v-3c0-13.8 2.5-25 7.5-33.8 5-8.7 12.9-13.1 23.8-13.1s18.9 4.4 24 13.1 7.6 20 7.6 33.8zm194.4 48.7-42.1-51.1 39.9-49.1 14.1-2.4v-25.3h-70.2v24.3l14.5 1.7-23.1 29.9-23.6-29.9 14.2-1.7v-24.3h-70v25.3l14.5 2.4 40.8 49.1-42.2 51.1-14.5 2.3v25.1h69.2v-24.1l-12.5-1.6 24.6-31.5 24.1 31.3-14.2 1.7v24.1h71.1v-25.1zm-1353-302.2h-371c-22.5 0-40.9 18.4-40.9 40.9v371c0 22.5 18.4 40.9 40.9 40.9h371c22.5 0 40.9-18.4 40.9-40.9v-371c-.1-22.6-18.5-40.9-40.9-40.9zm-54.5 154.5-22.4 4.3v150.1l22.4 4.3v25.1h-86.6v-25.1l22.3-4.3v-32.9l4-92.4-.9-.1-56 154.9h-28.2l-55.7-154.3-.9.1 4 91.8v32.9l22.4 4.3v25.1h-86.5v-25.1l22.3-4.3v-150.1l-22.3-4.3v-25.3h77l53.3 154.1h.9l53.7-154.1h77.3v25.3z" fill="#fff" fill-rule="nonzero" transform="matrix(.54768 0 0 .54768 -51.1169 -142.954)"/></svg>

<?xml version="1.0" encoding="UTF-8" standalone="no"?>
<!DOCTYPE svg PUBLIC "-//W3C//DTD SVG 1.1//EN" "http://www.w3.org/Graphics/SVG/1.1/DTD/svg11.dtd">
<svg width="100%" height="100%" viewBox="0 0 998 810" version="1.1" xmlns="http://www.w3.org/2000/svg" xmlns:xlink="http://www.w3.org/1999/xlink" xml:space="preserve" xmlns:serif="http://www.serif.com/" style="fill-rule:evenodd;clip-rule:evenodd;stroke-linejoin:round;stroke-miterlimit:2;">
    <g transform="matrix(0.54768,0,0,0.54768,-51.1169,-142.954)">
        <path d="M774,1048.7L773.1,1048.7L719.8,894.6L642.8,894.6L642.8,919.9L665.1,924.2L665.1,1074.3L642.8,1078.6L642.8,1103.7L729.4,1103.7L729.4,1078.6L707,1074.3L707,1041.4L703,949.6L703.9,949.5L759.6,1103.8L787.8,1103.8L843.8,948.9L844.7,949L840.7,1041.4L840.7,1074.3L818.4,1078.6L818.4,1103.7L905,1103.7L905,1078.6L882.6,1074.3L882.6,924.2L905,919.9L905,894.6L827.7,894.6L774,1048.7ZM985.7,945.5C964.3,945.4 947.3,952.8 934.6,967.8C921.9,982.7 915.6,1001.8 915.6,1024.8L915.6,1030.5C915.6,1052.6 922.3,1070.9 935.7,1085.2C949.1,1099.6 967,1106.7 989.4,1106.7C1001.9,1106.7 1013.3,1105 1023.5,1101.5C1033.7,1098.1 1042,1093.8 1048.4,1088.7L1037.1,1062.8C1029.8,1066.8 1023.1,1069.8 1017,1071.6C1010.9,1073.5 1003.2,1074.4 993.9,1074.4C983.5,1074.4 975.2,1071.1 969.1,1064.5C963,1057.9 959.6,1049.5 958.8,1039.2L959.1,1038.3L1051.9,1038.3L1051.9,1015.5C1051.9,994 1046.1,976.9 1034.5,964.2C1023,951.8 1006.7,945.5 985.7,945.5ZM1010.9,1010.8L959.5,1010.8L959.1,1010.1C960.2,1000.4 962.9,992.6 967.4,986.7C971.9,980.8 978,977.8 985.8,977.8C994.2,977.8 1000.5,980.5 1004.7,985.8C1008.9,991.1 1010.9,998.2 1010.9,1007.1L1010.9,1010.8ZM1149.2,1073.4C1147,1073.6 1144.5,1073.8 1141.7,1073.8C1137.5,1073.8 1134.1,1072.5 1131.6,1069.9C1129.1,1067.3 1127.9,1063 1127.9,1057L1127.9,977.8L1155.2,977.8L1155.2,948.4L1127.9,948.4L1127.9,910.3L1086,910.3L1086,948.4L1063.2,948.4L1063.2,977.8L1086,977.8L1086,1057.1C1086,1074.3 1089.9,1086.9 1097.7,1094.9C1105.5,1102.9 1116.6,1106.8 1131.1,1106.8C1136.5,1106.8 1141.4,1106.4 1146,1105.7C1150.6,1105 1155.2,1103.9 1159.9,1102.5L1156.3,1072.2C1153.7,1072.7 1151.3,1073.1 1149.2,1073.4ZM1303.9,1070.9C1303.9,1068.8 1303.8,1066.5 1303.8,1064.1L1303.8,999.9C1303.8,982.5 1297.8,969 1285.8,959.6C1273.8,950.2 1258.1,945.5 1238.9,945.5C1227.2,945.5 1216.4,947.3 1206.5,950.8C1196.6,954.3 1187.8,958.7 1180.1,963.9L1180,998.4L1211.6,998.4L1214.3,981.7C1216.6,980.2 1219.6,978.9 1223.4,977.7C1227.1,976.6 1231.4,976 1236.2,976C1244.6,976 1251,978.1 1255.3,982.2C1259.6,986.3 1261.8,992.1 1261.8,999.6L1261.8,1014.8L1240.4,1014.8C1217.8,1014.8 1200.7,1018.8 1189,1026.7C1177.3,1034.7 1171.5,1045.9 1171.5,1060.5C1171.5,1074.8 1176,1086 1184.9,1094.3C1193.9,1102.6 1205.9,1106.7 1221.2,1106.7C1230.4,1106.7 1238.6,1104.9 1245.7,1101.4C1252.8,1097.9 1258.9,1093.2 1263.9,1087.5C1264.4,1090.3 1265,1093 1265.9,1095.8C1266.8,1098.5 1267.8,1101.2 1268.9,1103.8L1317.3,1103.8L1317.3,1078.7L1304.5,1077C1304.1,1075 1303.9,1073 1303.9,1070.9ZM1261.7,1061.4C1258.8,1065.5 1254.8,1068.9 1249.6,1071.7C1244.4,1074.4 1238.7,1075.8 1232.4,1075.8C1226.4,1075.8 1221.6,1074.3 1218.3,1071.3C1214.9,1068.3 1213.2,1064.2 1213.2,1058.9C1213.2,1053.1 1215.5,1048.1 1220.1,1043.9C1224.7,1039.7 1231.4,1037.7 1240.4,1037.7L1261.8,1037.7L1261.8,1061.4L1261.7,1061.4ZM1532,995C1541.8,991.2 1549.2,985.4 1554.3,977.8C1559.4,970.2 1562,961.5 1562,951.9C1562,932.8 1555.1,918.5 1541.3,908.9C1527.5,899.3 1508.3,894.5 1483.7,894.5L1390.8,894.5L1390.8,919.8L1413.1,924.1L1413.1,1074.2L1390.8,1078.5L1390.8,1103.6L1493.7,1103.6C1517.9,1103.6 1536.7,1098.5 1549.9,1088.2C1563.1,1077.9 1569.7,1062.8 1569.7,1042.7C1569.7,1031.1 1566.6,1020.9 1560.3,1012.1C1553.9,1003.4 1544.5,997.7 1532,995ZM1455,926.9L1483.7,926.9C1495.8,926.9 1504.8,929.2 1510.9,933.8C1517,938.4 1520,945.5 1520,955.2C1520,964 1517,970.7 1510.9,975.3C1504.8,979.9 1496.2,982.2 1485,982.2L1455,982.2L1455,926.9ZM1519,1064.3C1513.2,1069.1 1504.7,1071.6 1493.6,1071.6L1455,1071.6L1455,1011.3L1496.8,1011.3C1507.5,1011.3 1515.4,1014 1520.4,1019.4C1525.4,1024.8 1527.9,1032.6 1527.9,1042.9C1527.8,1052.3 1524.9,1059.5 1519,1064.3ZM1653.6,945.5C1630.7,945.5 1612.8,952.9 1599.8,967.7C1586.8,982.5 1580.3,1001.5 1580.3,1024.7L1580.3,1027.7C1580.3,1051.1 1586.8,1070.1 1599.8,1084.8C1612.8,1099.5 1630.8,1106.9 1653.9,1106.9C1676.7,1106.9 1694.6,1099.6 1707.6,1084.8C1720.6,1070.1 1727.1,1051.1 1727.1,1027.7L1727.1,1024.7C1727.1,1001.4 1720.6,982.4 1707.6,967.7C1694.6,952.8 1676.6,945.5 1653.6,945.5ZM1685.2,1027.6C1685.2,1041.7 1682.7,1053 1677.7,1061.6C1672.7,1070.2 1664.7,1074.5 1653.9,1074.5C1642.8,1074.5 1634.7,1070.2 1629.8,1061.6C1624.8,1053 1622.3,1041.7 1622.3,1027.5L1622.3,1024.5C1622.3,1010.7 1624.8,999.5 1629.8,990.7C1634.8,982 1642.7,977.6 1653.6,977.6C1664.5,977.6 1672.5,982 1677.6,990.7C1682.7,999.4 1685.2,1010.7 1685.2,1024.5L1685.2,1027.6ZM1879.6,1076.3L1837.5,1025.2L1877.4,976.1L1891.5,973.7L1891.5,948.4L1821.3,948.4L1821.3,972.7L1835.8,974.4L1812.7,1004.3L1789.1,974.4L1803.3,972.7L1803.3,948.4L1733.3,948.4L1733.3,973.7L1747.8,976.1L1788.6,1025.2L1746.4,1076.3L1731.9,1078.6L1731.9,1103.7L1801.1,1103.7L1801.1,1079.6L1788.6,1078L1813.2,1046.5L1837.3,1077.8L1823.1,1079.5L1823.1,1103.6L1894.2,1103.6L1894.2,1078.5L1879.6,1076.3ZM526.6,774.1L155.6,774.1C133.1,774.1 114.7,792.5 114.7,815L114.7,1186C114.7,1208.5 133.1,1226.9 155.6,1226.9L526.6,1226.9C549.1,1226.9 567.5,1208.5 567.5,1186L567.5,815C567.4,792.4 549,774.1 526.6,774.1ZM472.1,928.6L449.7,932.9L449.7,1083L472.1,1087.3L472.1,1112.4L385.5,1112.4L385.5,1087.3L407.8,1083L407.8,1050.1L411.8,957.7L410.9,957.6L354.9,1112.5L326.7,1112.5L271,958.2L270.1,958.3L274.1,1050.1L274.1,1083L296.5,1087.3L296.5,1112.4L210,1112.4L210,1087.3L232.3,1083L232.3,932.9L210,928.6L210,903.3L287,903.3L340.3,1057.4L341.2,1057.4L394.9,903.3L472.2,903.3L472.2,928.6L472.1,928.6Z" style="fill:white;fill-rule:nonzero;"/>
    </g>
</svg>
